X:51
T:Moment Musical
C:Schubert
N:
L:1/8
Q:1/4=103
M:2/4
K:A
z4 | z4 | B/4A3/4A/B/ AG | A/4B/4c/4c/4c/4c/4c/ A/4B/4c/4c/4c/4c/4c/ | AA/B/ Ac | 
c/4f/4f/4f/4f/4f/4f/ c/4f/4f/4f/4f/4f/4f/ | =g/4f3/4f/g/ ff | fb f/4f/4f/4f/4f/4f/4f/ | 
c/B/A/B/ c/d/c/=f/ | f/4f/4f/4f/4f/4f/4f/ f/4f/4f/4f/4f/4f/4f/ | B/4A3/4A/B/ AG | 
A/4B/4c/4c/4c/4c/4c/ A/4B/4c/4c/4c/4c/4c/ | AA/B/ Ac | c/4f/4f/4f/4f/4f/4f/ c/4f/4f/4f/4f/4f/4f/ | 
=g/4f3/4f/g/ ff | fb f/4f/4f/4f/4f/4f/4f/ | c/B/A/B/ c/d/c/=f/ | f/4f/4f/4f/4f/4f/4f/ f/4f/4f/4f/4f/4f/4f/ | 
c/4c/4c/4c/4c/4c/4c/ c/4c/4c/4c/4c/4c/4c/ | c/d/e/d/ d/4d/4d/4d/4c/4c/4c/ | c/4B3/4B c/B/A/B/ | 
B/4B/4B/4B/4B/4B/4B/ c/4c/4c/4c/4e/4e/4e/ | e/4a/4a/4a/4a/4a/4a/ a/4a/4a/4a/4a/4a/4a/ | 
g/f/=f/^f/ f/4f/4f/4f/4f/4f/4f/ | f/e/e/4e/4e/4e/4 e/4e/4e/e | e/4e/4e/4e/4e/4e/4e/ e/4e/4e/4e/4e/4e/4e/ | 
c/4c/4c/4c/4c/4c/4c/ c/4c/4c/4c/4c/4c/4c/ | c/d/e/d/ d/4d/4d/4d/4c/4c/4c/ | c/4B3/4B c/B/A/B/ | 
B/4B/4B/4B/4B/4B/4B/ c/4c/4c/4c/4e/4e/4e/ | e/4a/4a/4a/4a/4a/4a/ a/4a/4a/4a/4a/4a/4a/ | 
g/f/=f/^f/ f/4f/4f/4f/4f/4f/4f/ | f/e/e/4e/4e/4e/4 e/4e/4e/e | e/4e/4e/4e/4e/4e/4e/ e/4e/4e/4e/4e/4e/4e/ | 
=f/4f/4f/4f/4f/4f/4f/ f/4f/4f/4f/4f/4f/4f/ | A/4a3/4a/g/ fe/d/ | c/4c/4c/4c/4c/4c/4c/ =f/4f/4f/4f/4f/4f/4f/ | 
A/4a3/4a/g/ fe/d/ | c/4c/4c/4c/4c/4c/4c/ c/4c/4c/4c/4c/4c/4c/ | c/d/e/d/ dc/B/ | 
AA A/B/c/B/ | A/4A/4A/4A/4A/4A/4A/ A/4A/4A/4A/4A/4A/4A/ | =f/4f/4f/4f/4f/4f/4f/ f/4f/4f/4f/4f/4f/4f/ | 
A/4a3/4a/g/ fe/d/ | c/4c/4c/4c/4c/4c/4c/ =f/4f/4f/4f/4f/4f/4f/ | A/4a3/4a/g/ fe/d/ | 
c/4c/4c/4c/4c/4c/4c/ c/4c/4c/4c/4c/4c/4c/ | c/d/e/d/ dc/B/ | AA A/B/c/B/ | A/4A/4A/4A/4A/4A/4A/ A/4A/4A/4A/4A/4A/4A/ | 
B/4A3/4A/B/ AG | A/4B/4c/4c/4c/4c/4c/ A/4B/4c/4c/4c/4c/4c/ | AA/B/ Ac | c/4f/4f/4f/4f/4f/4f/ c/4f/4f/4f/4f/4f/4f/ | 
=g/4f3/4f/g/ ff | fb f/4f/4f/4f/4f/4f/4f/ | c/B/A/B/ c/d/c/=f/ | f/4f/4f/4f/4f/4f/4f/ f/4f/4f/4f/4f/4f/4f/ | 
a/4g3/4g/a/ gg | ba/4a/4a/4a/4 a/4a/4a/g/f/ | d/4c3/4c/d/ c=f | f/4f/4f/4f/4f/4f/4f/ f/4f/4f/4f/4f/4f/4f/ | 
gg/a/ gg | ba/4a/4a/4a/4 a/4a/4a/g/f/ | ^d/4c3/4c/d/ cd | ^d/4c3/4c/d/ cd | ^d/4c3/4c/d/ c=f | 
f/4f/4f/4f/4f/4f/4f/ f/4f/4f/4f/4f/4f/4f/ | ^d/4c3/4c/d/ c^A | B/4B/4B/4B/4B/4B/4B/ B/4B/4B/4B/4B/4B/4B/ | 
c/4B3/4B/c/ BG | F/4F/4F/4F/4F/4F/4F/ F/4F/4F/4F/4F/4F/4F/ | ^d/4c3/4c/d/ c^A | 
B/4B/4B/4B/4B/4B/4B/ B/4B/4B/4B/4B/4B/4B/ | c/4B3/4B/c/ B=F | F/4F/4F/4F/4F/4F/4F/ F/4F/4F/4F/4F/4F/4F/ | 
F/4F/4F/4F/4F/4F/4F/ F/4F/4F/4F/4F/4F/4F/ | F/4F/F/F/F/F/F/F/F/4 | z/4F/4F/4F3z/4 | 
z4 | 
 

